X: 37867
T: Sound Man, Éamonn
R: reel
M: 4/4
K: Bminor
|:dcBA F2 DE|FB,DE FA A2|d2 cA FABd|1 fded cAec:|2 fded cAGA||
|:d2 FA d2 fd|defd Beee|1 d2 FA dfaf|g2 fg eAGA:|2 faaf b2 af|defd gfec||

